svg/cookie_remove_outline.svg

<svg xmlns="http://www.w3.org/2000/svg" viewBox="0 0 24 24"><path d="M17.32 13.24c-.87.26-1.66.71-2.32 1.29v-.03c0-.83.67-1.5 1.5-1.5.3 0 .58.09.82.24M16 10v.5c0 .83.67 1.5 1.5 1.5H19c0 .34-.03.68-.08 1H19c.66 0 1.3.12 1.89.32a8.4 8.4 0 0 0-.02-2.82C20.6 10 20 10 20 10h-2V9c0-1-1-1-1-1h-2V7c0-1-1-1-1-1h-1V4c0-1-1-1-1-1a9 9 0 0 0 0 18c.45 0 .89-.04 1.32-.11-.2-.59-.32-1.23-.32-1.89v-.08c-.54.08-1.1.08-1.68.04.68-.14 1.18-.74 1.18-1.46 0-.83-.67-1.5-1.5-1.5a1.498 1.498 0 0 0-.84 2.74c-2.62-.7-4.66-2.93-5.07-5.62C5 12.61 5 12.11 5 11.62c.07.77.71 1.38 1.5 1.38.83 0 1.5-.67 1.5-1.5S7.33 10 6.5 10c-.68 0-1.25.46-1.43 1.08C5.47 8 7.91 5.5 11 5.07V6.5c0 .83.67 1.5 1.5 1.5h.5v.5c0 .83.67 1.5 1.5 1.5zm-5-2.5c0-.83-.67-1.5-1.5-1.5S8 6.67 8 7.5 8.67 9 9.5 9 11 8.33 11 7.5m.5 6.5c.83 0 1.5-.67 1.5-1.5s-.67-1.5-1.5-1.5-1.5.67-1.5 1.5.67 1.5 1.5 1.5m11.04 2.88-1.42-1.41L19 17.59l-2.12-2.12-1.41 1.41L17.59 19l-2.12 2.12 1.41 1.42L19 20.41l2.12 2.13 1.42-1.42L20.41 19z"/></svg>

<?xml version="1.0" encoding="UTF-8"?><!DOCTYPE svg PUBLIC "-//W3C//DTD SVG 1.1//EN" "http://www.w3.org/Graphics/SVG/1.1/DTD/svg11.dtd"><svg xmlns="http://www.w3.org/2000/svg" xmlns:xlink="http://www.w3.org/1999/xlink" version="1.1" id="mdi-cookie-remove-outline" width="24" height="24" viewBox="0 0 24 24"><path d="M17.32 13.24C16.45 13.5 15.66 13.95 15 14.53C15 14.5 15 14.5 15 14.5C15 13.67 15.67 13 16.5 13C16.8 13 17.08 13.09 17.32 13.24M16 10V10.5C16 11.33 16.67 12 17.5 12H19C19 12.34 18.97 12.68 18.92 13C18.95 13 18.97 13 19 13C19.66 13 20.3 13.12 20.89 13.32C20.96 12.89 21 12.45 21 12C21 11.5 20.96 11 20.87 10.5C20.6 10 20 10 20 10H18V9C18 8 17 8 17 8H15V7C15 6 14 6 14 6H13V4C13 3 12 3 12 3C7.03 3 3 7.03 3 12S7.03 21 12 21C12.45 21 12.89 20.96 13.32 20.89C13.12 20.3 13 19.66 13 19C13 18.97 13 18.95 13 18.92C12.46 19 11.9 19 11.32 18.96C12 18.82 12.5 18.22 12.5 17.5C12.5 16.67 11.83 16 11 16S9.5 16.67 9.5 17.5C9.5 18 9.76 18.47 10.16 18.74C7.54 18.04 5.5 15.81 5.09 13.12C5 12.61 5 12.11 5 11.62C5.07 12.39 5.71 13 6.5 13C7.33 13 8 12.33 8 11.5S7.33 10 6.5 10C5.82 10 5.25 10.46 5.07 11.08C5.47 8 7.91 5.5 11 5.07V6.5C11 7.33 11.67 8 12.5 8H13V8.5C13 9.33 13.67 10 14.5 10H16M11 7.5C11 6.67 10.33 6 9.5 6S8 6.67 8 7.5 8.67 9 9.5 9 11 8.33 11 7.5M11.5 14C12.33 14 13 13.33 13 12.5S12.33 11 11.5 11 10 11.67 10 12.5 10.67 14 11.5 14M22.54 16.88L21.12 15.47L19 17.59L16.88 15.47L15.47 16.88L17.59 19L15.47 21.12L16.88 22.54L19 20.41L21.12 22.54L22.54 21.12L20.41 19L22.54 16.88Z" /></svg>
